common/src/main/resources/icons/plugins/markdown/Strike_through.svg

<svg xmlns="http://www.w3.org/2000/svg" width="16" height="16" fill="#81C784" data-big="true" viewBox="-4 -4 32 32"><path d="M23 12v2h-4.39c1 2.14.95 8-6.23 8-8.33.05-8.01-6.5-8.01-6.5l3.97.05c.03 3.37 3.16 3.37 3.78 3.33.64-.05 3.03-.04 3.22-2.38.08-1.09-1.02-1.92-2.22-2.5H1v-2zm-3.59-4.11-3.98-.03s.17-2.77-3.28-2.78C8.7 5.06 9 7.28 9 7.56c.04.28.34 1.66 3 2.32H5.71S2.22 3.15 10.74 2c8.71-1.2 8.69 5.91 8.67 5.89"/></svg>

<!--
  - The MIT License (MIT)
  -
  - Copyright (c) 2015-2024 Elior "Mallowigi" Boukhobza
  -
  - Permission is hereby granted, free of charge, to any person obtaining a copy
  - of this software and associated documentation files (the "Software"), to deal
  - in the Software without restriction, including without limitation the rights
  - to use, copy, modify, merge, publish, distribute, sublicense, and/or sell
  - copies of the Software, and to permit persons to whom the Software is
  - furnished to do so, subject to the following conditions:
  -
  - The above copyright notice and this permission notice shall be included in all
  - copies or substantial portions of the Software.
  -
  - THE SOFTWARE IS PROVIDED "AS IS", WITHOUT WARRANTY OF ANY KIND, EXPRESS OR
  - IMPLIED, INCLUDING BUT NOT LIMITED TO THE WARRANTIES OF MERCHANTABILITY,
  - FITNESS FOR A PARTICULAR PURPOSE AND NONINFRINGEMENT. IN NO EVENT SHALL THE
  - AUTHORS OR COPYRIGHT HOLDERS BE LIABLE FOR ANY CLAIM, DAMAGES OR OTHER
  - LIABILITY, WHETHER IN AN ACTION OF CONTRACT, TORT OR OTHERWISE, ARISING FROM,
  - OUT OF OR IN CONNECTION WITH THE SOFTWARE OR THE USE OR OTHER DEALINGS IN THE
  - SOFTWARE.
  -->


<svg data-big="true" xmlns="http://www.w3.org/2000/svg" version="1.1" width="16px" height="16px" fill="#81C784"
     viewBox="-4 -4 32 32">
  <path
    d="M23,12V14H18.61C19.61,16.14 19.56,22 12.38,22C4.05,22.05 4.37,15.5 4.37,15.5L8.34,15.55C8.37,18.92 11.5,18.92 12.12,18.88C12.76,18.83 15.15,18.84 15.34,16.5C15.42,15.41 14.32,14.58 13.12,14H1V12H23M19.41,7.89L15.43,7.86C15.43,7.86 15.6,5.09 12.15,5.08C8.7,5.06 9,7.28 9,7.56C9.04,7.84 9.34,9.22 12,9.88H5.71C5.71,9.88 2.22,3.15 10.74,2C19.45,0.8 19.43,7.91 19.41,7.89Z"/>
</svg>
